src/resources/location-icon.svg

<svg fill="none" height="21" viewBox="0 0 18 21" width="18" xmlns="http://www.w3.org/2000/svg"><path clip-rule="evenodd" d="m9 21c2 0 9-5.25 9-11.55s-4.0294-9.45-9-9.45c-4.97056 0-9 3.15-9 9.45s7 11.55 9 11.55zm-2.54995-12.74995c0-1.40833 1.14167-2.55 2.55-2.55 1.40835 0 2.54995 1.14167 2.54995 2.55 0 1.40832-1.1416 2.54995-2.54995 2.54995-1.40833 0-2.55-1.14163-2.55-2.54995zm2.55-3.95c-2.18153 0-3.95 1.76847-3.95 3.95 0 2.18155 1.76847 3.94995 3.95 3.94995 2.18155 0 3.94995-1.7684 3.94995-3.94995 0-2.18153-1.7684-3.95-3.94995-3.95z" fill="#b1b5b4" fill-rule="evenodd"/></svg>

<svg width="18" height="21" viewBox="0 0 18 21" fill="none" xmlns="http://www.w3.org/2000/svg">
<path fill-rule="evenodd" clip-rule="evenodd" d="M9 21C11 21 18 15.75 18 9.45C18 3.15 13.9706 0 9 0C4.02944 0 0 3.15 0 9.45C0 15.75 7 21 9 21ZM6.45005 8.25005C6.45005 6.84172 7.59172 5.70005 9.00005 5.70005C10.4084 5.70005 11.55 6.84172 11.55 8.25005C11.55 9.65837 10.4084 10.8 9.00005 10.8C7.59172 10.8 6.45005 9.65837 6.45005 8.25005ZM9.00005 4.30005C6.81852 4.30005 5.05005 6.06852 5.05005 8.25005C5.05005 10.4316 6.81852 12.2 9.00005 12.2C11.1816 12.2 12.95 10.4316 12.95 8.25005C12.95 6.06852 11.1816 4.30005 9.00005 4.30005Z" fill="#B1B5B4"/>
</svg>
